X:3
T:Drink to Me Only with Thine Eyes (1)
M:6/8
K:Bb
L:1/4
Q:1/4=120
  d/2d/2d/2 ee/2 | (f/2e/2)d/2 (c/2d/2)e/2 | (f/2B/2)e/2 (dc/2) |1 B3/2-B z/2 :|
 |2 B3/2-B f/2 || (f/2d/2)f/2 bf/2 | (f/2d/2)f/2 ff/2 | (gf/2) (f/2e/2)d/2 |
 (d3/2c) z/2 | d/2d/2d/2 ee/2 | (f/2e/2)d/2 (c/2d/2)e/2 | (f/2B/2)e/2 dc/2 | B3/2-B z/2 |]
